X: 178
T:Lindbergh's Crate
% Nottingham Music Database
S:Bob McQuillen Jan 1976, via Phil Rowe
M:6/8
K:D
e|"D"f2f "A7"e2e|"D"ded "A"cBA|"G"Bcd "D"A2f|"D"agf "A7"ede|
"D"f2f "A7"e2e|"D"ded "A"cBA|"G"Bcd "D"Adf|"A7"edc "D"d2::
A|"D"F2F "G"GFG|"A"ABc "D"d2e|"D"fga agf|"E7"fed "A"e2A|
"D"FEF "G"GFG|"D"ABc def|"G"gab "D"agf|"A7"edc "D"d2:|<end>
<start>
